X: 23115
T: Laurel Tree, The
R: reel
M: 4/4
K: Adorian
eA~A2 dedc|B~G3 Bcd2|eA~A2 ez dc|BAGB ~A3z|
eA~A2 dedc|B~G3 Bcd2|~e3f g3(g|g)edB A2 (3Bcd|
eA~A2 dedc|B~G3 Bcd2|egde gdeg|dege deg2|
eA~A2 eAA2|B~G3 Bcd2|~e3f g3(g|g)edB A2 (3Bcd|
|:eaag e2dc|B~G3 Bcd2|eaag a2ga|bagb a3g|
eaag e2dc|B~G3 Bcd2|~e3f g3(g|g)edB A2 (3Bcd:|

